img/Item-4.svg

<svg width="190" height="32" viewBox="0 0 190 32" fill="none" xmlns="http://www.w3.org/2000/svg">
<path fill-rule="evenodd" clip-rule="evenodd" d="M74.4149 22.238L74.4149 22.2381C74.8448 23.3333 74.9403 24.3809 74.797 25.4285C74.4627 27.619 73.0298 29.5238 70.9284 30.3809C70.1642 30.7143 69.3522 30.8571 68.4925 30.8571C68.2537 30.8571 67.9672 30.8571 67.7284 30.8095C66.7254 30.7143 65.7224 30.3809 64.7194 29.8095C63.5254 29.1428 62.3313 28.1428 60.994 26.7143C59.6567 28.1428 58.5104 29.1428 57.2687 29.8095C56.2657 30.3809 55.2627 30.6666 54.2597 30.8095C54.1403 30.8095 54.0089 30.8214 53.8776 30.8333C53.7463 30.8452 53.6149 30.8571 53.4955 30.8571C52.6358 30.8571 51.8239 30.7143 51.0597 30.3809C49.006 29.5238 47.4776 27.6666 47.1433 25.4285C47 24.3333 47.1433 23.2857 47.5254 22.2381C47.6686 21.8095 47.8119 21.4762 47.9552 21.1429L47.9552 21.1428C48.194 20.619 48.4328 20.0952 48.6239 19.619L48.6716 19.5714C50.7731 15.0952 52.9701 10.5714 55.2627 6.09521L55.3582 5.90474C55.597 5.47617 55.8358 4.99998 56.0746 4.52379C56.1389 4.42308 56.2032 4.32061 56.2681 4.21705L56.2683 4.21685C56.5411 3.78186 56.826 3.32777 57.1731 2.90474C58.1761 1.76188 59.5134 1.09521 60.994 1.09521C62.4269 1.09521 63.8119 1.76188 64.7672 2.95236C65.2448 3.47617 65.5791 4.0476 65.8657 4.57141C66.1045 5.0476 66.3433 5.52379 66.5821 5.95236L66.6776 6.14283C69.0179 10.619 71.2149 15.1428 73.2687 19.619H73.3164C73.5074 20.0952 73.7462 20.6189 73.985 21.1427L73.9851 21.1428C74.1283 21.4761 74.2716 21.857 74.4149 22.2379L74.4149 22.238L74.4149 22.238ZM97.4836 8.57141C97.4836 9.66664 96.6239 10.5238 95.5254 10.5238C94.4269 10.5238 93.5672 9.66664 93.5672 8.57141C93.5672 7.47617 94.4269 6.61902 95.5254 6.61902C96.6716 6.66664 97.4836 7.52379 97.4836 8.57141ZM89.5075 12.4762V12.9524C89.5075 12.9524 88.6 11.7619 86.594 11.7619C83.3463 11.7619 80.8149 14.2381 80.8149 17.6666C80.8149 21.0476 83.3463 23.5714 86.594 23.5714C88.6 23.5714 89.5075 22.3333 89.5075 22.3333V22.8571C89.5075 23.0952 89.6985 23.2857 89.9373 23.2857H92.3731V12.0476H89.9373C89.6507 12.0476 89.5075 12.2381 89.5075 12.4762ZM87.0716 20.8571C88.1701 20.8571 89.0776 20.2857 89.5075 19.619V15.619C89.0776 15 88.1224 14.3809 87.0716 14.3809C85.1612 14.3809 83.6806 15.5714 83.6806 17.619C83.6806 19.6666 85.1612 20.8571 87.0716 20.8571ZM96.9582 12.0476V23.2381H94.0925V12.0476H96.9582ZM134.021 12.9524C134.021 12.9524 134.976 11.7619 136.934 11.7619C140.182 11.7619 142.713 14.2381 142.713 17.619C142.713 21 140.182 23.5238 136.934 23.5238C134.928 23.5238 134.021 22.2857 134.021 22.2857V22.8095C134.021 23.0476 133.83 23.2381 133.591 23.2381H131.155V6.66664H134.021V12.9524ZM136.457 20.8095C135.358 20.8095 134.499 20.2381 134.021 19.5714V15.5714C134.451 14.9524 135.406 14.3333 136.457 14.3333C138.367 14.3333 139.848 15.5238 139.848 17.5714C139.848 19.619 138.367 20.8095 136.457 20.8095ZM129.675 23.2857V16.619C129.675 14.7143 129.293 13.6666 128.337 12.8571C127.478 12.1428 126.427 11.7619 125.185 11.7619C124.087 11.7619 122.988 12.0952 122.128 12.9524V12.4762C122.128 12.2381 121.937 12.0476 121.699 12.0476H119.406V23.2857H122.272V15.4762C122.845 14.8095 123.752 14.3809 124.612 14.3809C126.188 14.3809 126.809 15.0952 126.809 16.9524V23.2857H129.675ZM112.433 11.7619C110.475 11.7619 109.519 12.9524 109.519 12.9524V6.66664H106.654V23.2381H109.09C109.328 23.2381 109.519 23.0476 109.519 22.8095V22.2857C109.519 22.2857 110.427 23.5238 112.433 23.5238C115.681 23.5238 118.212 21 118.212 17.619C118.26 14.2381 115.728 11.7619 112.433 11.7619ZM109.519 19.5714C109.997 20.2381 110.857 20.8095 111.955 20.8095C113.866 20.8095 115.346 19.619 115.346 17.5714C115.346 15.5238 113.866 14.3333 111.955 14.3333C110.904 14.3333 109.949 14.9524 109.519 15.5714V19.5714ZM104.218 11.7619C105.078 11.7619 105.555 11.9047 105.555 11.9047V14.5714C105.555 14.5714 103.167 13.7619 101.687 15.4762V23.2857H98.8209V12.0476H101.257C101.496 12.0476 101.687 12.2381 101.687 12.4762V12.9524C102.164 12.3333 103.31 11.7619 104.218 11.7619ZM60.9463 23.7619C59.3224 21.7143 58.2716 19.8095 57.9373 18.2381C57.794 17.5714 57.7463 16.9524 57.8418 16.4285C57.8895 15.9524 58.0806 15.5238 58.3194 15.1905C58.8925 14.3809 59.8478 13.8571 60.9463 13.8571C62.0448 13.8571 63.0478 14.3333 63.5731 15.1905C63.8119 15.5714 64.003 15.9524 64.0507 16.4285C64.1463 16.9524 64.0985 17.5714 63.9552 18.2381C63.6209 19.8095 62.5701 21.7143 60.9463 23.7619ZM70.1642 28.6666C71.6448 28.0952 72.6955 26.7619 72.8866 25.1905C72.9821 24.3809 72.8866 23.6666 72.7433 22.9047C72.6916 22.7501 72.6259 22.5954 72.5537 22.4256C72.4926 22.2817 72.4269 22.1271 72.3612 21.9524C72.2418 21.7143 72.1343 21.4643 72.0269 21.2143C71.9194 20.9643 71.8119 20.7143 71.6925 20.4762V20.4285C69.6388 16 67.4418 11.4762 65.1492 7.0476L65.0537 6.85712C64.8149 6.38093 64.5761 5.90474 64.3373 5.47617C64.0985 4.99998 63.8119 4.52379 63.4776 4.14283C62.8567 3.42855 61.997 3.0476 61.0895 3.0476C60.1821 3.0476 59.3224 3.42855 58.7015 4.14283C58.3672 4.57141 58.0806 4.99998 57.8418 5.47617C57.603 5.95236 57.3642 6.42855 57.1254 6.85712L57.0298 7.0476C54.6895 11.4762 52.4925 16 50.4388 20.4285L50.391 20.4762C50.1522 20.9524 49.9134 21.4762 49.7224 21.9524L49.7224 21.9524C49.5791 22.2857 49.4358 22.619 49.3403 22.9047C49.006 23.7619 48.9582 24.4762 49.0537 25.2381C49.2448 26.7619 50.2955 28.0952 51.7761 28.7143C52.4448 28.9524 53.2089 29.0952 54.0209 29C54.7851 28.9047 55.5492 28.6666 56.3134 28.2381C57.3642 27.619 58.4627 26.7143 59.7045 25.3333C57.7463 22.9047 56.5045 20.6666 56.0746 18.7143C55.8358 17.8095 55.7881 16.9524 55.9313 16.1905C56.0746 15.4285 56.3134 14.7619 56.7433 14.1428C57.6507 12.8571 59.2269 12.0476 60.9463 12.0476C62.6657 12.0476 64.2418 12.8095 65.1492 14.1428C65.5791 14.7619 65.8179 15.4285 65.9612 16.1905C66.0567 16.9524 66.0089 17.8095 65.8179 18.7143C65.3403 20.6666 64.1463 22.8571 62.1881 25.2857C63.4298 26.6666 64.4806 27.5714 65.5791 28.1905C66.391 28.619 67.1075 28.8571 67.8716 28.9524C68.6836 29.0476 69.4478 28.9524 70.1642 28.6666Z" fill="white"/>
</svg>

<svg width="190" height="32" fill="none" xmlns="http://www.w3.org/2000/svg"><path fill-rule="evenodd" clip-rule="evenodd" d="M74.415 22.238a6.21 6.21 0 0 1 .382 3.19c-.334 2.191-1.767 4.096-3.869 4.953-.764.333-1.576.476-2.435.476-.24 0-.526 0-.765-.047-1.003-.096-2.006-.43-3.009-1-1.194-.667-2.388-1.667-3.725-3.096-1.337 1.429-2.484 2.429-3.725 3.096-1.003.57-2.006.857-3.01 1-.119 0-.25.011-.381.023a4.386 4.386 0 0 1-.383.024c-.86 0-1.671-.143-2.435-.476-2.054-.857-3.582-2.714-3.917-4.953-.143-1.095 0-2.142.382-3.19.144-.428.287-.762.43-1.095a37.57 37.57 0 0 0 .669-1.524l.048-.048c2.101-4.476 4.298-9 6.59-13.476l.096-.19c.239-.429.478-.905.717-1.381l.193-.307c.273-.435.558-.89.905-1.312 1.003-1.143 2.34-1.81 3.821-1.81 1.433 0 2.818.667 3.773 1.857.478.524.812 1.096 1.099 1.62.239.476.477.952.716 1.38l.096.19a291.5 291.5 0 0 1 6.59 13.477h.048c.191.476.43 1 .669 1.524.143.333.287.714.43 1.095zM97.484 8.571c0 1.096-.86 1.953-1.959 1.953a1.934 1.934 0 0 1-1.958-1.953c0-1.095.86-1.952 1.958-1.952 1.147.048 1.959.905 1.959 1.952zm-7.977 3.905v.476s-.907-1.19-2.913-1.19c-3.248 0-5.78 2.476-5.78 5.905 0 3.38 2.532 5.904 5.78 5.904 2.006 0 2.913-1.238 2.913-1.238v.524c0 .238.191.429.43.429h2.436V12.048h-2.436c-.286 0-.43.19-.43.428zm-2.435 8.381c1.098 0 2.006-.571 2.435-1.238v-4c-.43-.619-1.385-1.238-2.435-1.238-1.91 0-3.391 1.19-3.391 3.238s1.48 3.238 3.39 3.238zm9.886-8.81v11.191h-2.865v-11.19h2.865zm37.063.905s.955-1.19 2.913-1.19c3.248 0 5.779 2.476 5.779 5.857 0 3.381-2.531 5.905-5.779 5.905-2.006 0-2.913-1.238-2.913-1.238v.523a.427.427 0 0 1-.43.43h-2.436V6.666h2.866v6.285zm2.436 7.857a2.994 2.994 0 0 1-2.436-1.238v-4c.43-.619 1.385-1.238 2.436-1.238 1.91 0 3.391 1.19 3.391 3.238s-1.481 3.238-3.391 3.238zm-6.782 2.477v-6.667c0-1.905-.382-2.952-1.338-3.762-.859-.714-1.91-1.095-3.152-1.095-1.098 0-2.197.333-3.057 1.19v-.476a.427.427 0 0 0-.429-.428h-2.293v11.238h2.866v-7.81c.573-.667 1.48-1.095 2.34-1.095 1.576 0 2.197.714 2.197 2.571v6.334h2.866zm-17.242-11.524c-1.958 0-2.914 1.19-2.914 1.19V6.667h-2.865v16.571h2.436c.238 0 .429-.19.429-.428v-.524s.908 1.238 2.914 1.238c3.248 0 5.779-2.524 5.779-5.905.048-3.38-2.484-5.857-5.779-5.857zm-2.914 7.81a2.996 2.996 0 0 0 2.436 1.238c1.911 0 3.391-1.191 3.391-3.239 0-2.047-1.48-3.238-3.391-3.238-1.051 0-2.006.62-2.436 1.238v4zm-5.301-7.81c.86 0 1.337.143 1.337.143v2.666s-2.388-.81-3.868.905v7.81h-2.866V12.048h2.436c.239 0 .43.19.43.428v.476c.477-.619 1.623-1.19 2.531-1.19zm-43.272 12c-1.624-2.048-2.674-3.953-3.009-5.524-.143-.667-.19-1.286-.095-1.81.047-.476.239-.904.477-1.238a3.192 3.192 0 0 1 2.627-1.333c1.099 0 2.102.476 2.627 1.334.239.38.43.761.478 1.237.095.524.047 1.143-.096 1.81-.334 1.572-1.385 3.476-3.009 5.524zm9.218 4.905a4.288 4.288 0 0 0 2.723-3.477c.095-.81 0-1.523-.144-2.285a6.567 6.567 0 0 0-.19-.48c-.06-.143-.126-.298-.192-.473-.12-.238-.227-.488-.334-.738-.108-.25-.215-.5-.335-.738v-.047A344.693 344.693 0 0 0 65.15 7.047l-.095-.19c-.24-.477-.478-.953-.717-1.382-.239-.476-.525-.952-.86-1.333a3.137 3.137 0 0 0-2.387-1.095c-.908 0-1.768.38-2.389 1.095a7.93 7.93 0 0 0-.86 1.333c-.238.476-.477.953-.716 1.381l-.095.19c-2.34 4.43-4.538 8.953-6.591 13.382l-.048.047c-.239.476-.478 1-.669 1.476-.143.334-.286.667-.382.953a4.508 4.508 0 0 0-.286 2.333c.19 1.524 1.241 2.857 2.722 3.476.669.238 1.433.381 2.245.286a6.205 6.205 0 0 0 2.292-.762c1.051-.619 2.15-1.524 3.392-2.905-1.959-2.428-3.2-4.666-3.63-6.619-.24-.904-.287-1.762-.144-2.523.144-.762.382-1.43.812-2.048.908-1.286 2.484-2.095 4.203-2.095 1.72 0 3.296.761 4.203 2.095.43.619.669 1.285.812 2.047.096.762.048 1.62-.143 2.524-.478 1.953-1.672 4.143-3.63 6.572 1.242 1.38 2.293 2.285 3.391 2.904.812.429 1.529.667 2.293.762.812.096 1.576 0 2.292-.285z" fill="#fff"/></svg>
